X:1
T:Lochanhacion  "CYMRU"
M:3/4
L:1/8
Q:80
C:W.M. Coutts
S:Retreat
K:HP
|: {g}A3/2d/2{g}f2{e}f2 | \
{gf}gB{gef}e2{Gdc}d2 | \
{gcd}c2{GAG}A2-A{Gdc}d |
{g}f3/2g/2{gef}e4 | | \
{g}A3/2d/2{g}f2{e}f2 | \
{gf}gB{gef}e2{Gdc}d2 |
{gcd}c2{GAG}A2-A{d}c | \
{gf}g{a}c{Gdc}d4 :: \
{g}c3/2d/2{gef}e2{A}e2 |
{Gdc}d3/2e/2{gfg}f2{AGAG}A2 | \
{g}e3/2f/2{gf}g2{f}gf | \
{ag}a3/2f/2{gef}e4|1 |
{g}c3/2d/2{gef}e2{A}e2 | \
{Gdc}d3/2e/2{gfg}f2{AGAG}A2 | \
{gcd}c2{GAG}A2-A{d}c |
{gf}g{a}c{Gdc}d4:|2  | \
{ag}a3/2g/2{a}f2{e}f2 | \
{gf}gB{gef}e2{Gdc}d2 |
{gcd}c2{GAG}A2-A{d}c | \
{gf}g{a}c{Gdc}d4 :|
